app/images/dist/toys.svg

<svg width="19" height="19" viewBox="0 0 19 19" fill="none" xmlns="http://www.w3.org/2000/svg">
<path d="M4.25503 18.113C3.16282 18.113 2.27539 17.3085 2.27539 16.3182C2.27539 15.328 3.16282 14.5234 4.25503 14.5234C5.34725 14.5234 6.23467 15.328 6.23467 16.3182C6.23467 17.3085 5.34725 18.113 4.25503 18.113ZM4.25503 15.1423C3.54964 15.1423 2.95803 15.6581 2.95803 16.3182C2.95803 16.9577 3.52689 17.4941 4.25503 17.4941C4.96042 17.4941 5.55204 16.9784 5.55204 16.3182C5.55204 15.6581 4.98318 15.1423 4.25503 15.1423Z" fill="#222222"/>
<path d="M14.7218 18.113C13.6296 18.113 12.7422 17.3085 12.7422 16.3182C12.7422 15.328 13.6296 14.5234 14.7218 14.5234C15.814 14.5234 16.7015 15.328 16.7015 16.3182C16.7015 17.3085 15.814 18.113 14.7218 18.113ZM14.7218 15.1423C14.0164 15.1423 13.4248 15.6581 13.4248 16.3182C13.4248 16.9577 13.9937 17.4941 14.7218 17.4941C15.4272 17.4941 16.0188 16.9784 16.0188 16.3182C16.0188 15.6581 15.45 15.1423 14.7218 15.1423Z" fill="#222222"/>
<path d="M4.25458 18.9994C3.50368 18.9994 2.73003 18.7312 2.16116 18.2155C1.00069 17.1633 1.00069 15.4717 2.16116 14.4196L4.5959 12.2122C4.57314 11.9853 4.55039 11.779 4.55039 11.5933C4.55039 11.0982 4.61865 10.6237 4.75518 10.1492L1.22823 8.78767H1.20548C0.727632 8.602 0.340805 8.25129 0.136015 7.81807C-0.0687757 7.38484 -0.0687757 6.88973 0.136015 6.4565C0.340805 6.02328 0.727632 5.67257 1.20548 5.48691C1.68332 5.30124 2.22943 5.30124 2.70727 5.48691L6.43901 6.88973C6.50727 6.91036 6.55278 6.95162 6.57554 6.99288C7.25817 7.8387 8.30488 8.31318 9.4426 8.31318C10.5803 8.31318 11.627 7.8387 12.3097 6.99288C12.3552 6.95162 12.4007 6.91036 12.4462 6.88973L16.1779 5.48691C17.1791 5.11557 18.3396 5.5488 18.7492 6.4565C18.954 6.88973 18.954 7.38484 18.7492 7.81807C18.5444 8.25129 18.1576 8.602 17.6797 8.78767C17.6797 8.78767 17.6797 8.78767 17.657 8.78767L14.1073 10.1286C14.2438 10.6031 14.3121 11.0982 14.3121 11.5727C14.3121 11.779 14.2893 11.9853 14.2666 12.1916L16.724 14.4196C17.8845 15.4717 17.8845 17.1633 16.724 18.2155C15.5636 19.2676 13.6977 19.2676 12.56 18.2155C12.56 18.2155 12.56 18.2155 12.5372 18.1948L10.6258 16.4619C9.82943 16.6682 8.98751 16.6682 8.1911 16.4619L6.25697 18.2155C5.77913 18.7312 5.02823 18.9994 4.25458 18.9994ZM2.66176 14.8528C1.77434 15.6574 1.77434 16.9777 2.66176 17.7822C3.54919 18.5868 4.98272 18.5868 5.87015 17.7822L7.94081 15.9049C8.03182 15.8224 8.16835 15.8018 8.28212 15.8224C9.07853 16.07 9.89769 16.07 10.6941 15.8224C10.8079 15.7811 10.9444 15.8224 11.0354 15.9049L13.1061 17.7822C13.9935 18.5868 15.427 18.5868 16.3145 17.7822C17.2019 16.9777 17.2019 15.678 16.3145 14.8734L13.766 12.5216C13.6977 12.4598 13.6522 12.3566 13.6749 12.2535C13.7204 12.0059 13.7432 11.7583 13.7432 11.5521C13.7432 11.0363 13.6522 10.5206 13.4701 10.0254C13.4246 9.88104 13.4929 9.716 13.6749 9.65411L17.5204 8.21003C17.5204 8.21003 17.5204 8.21003 17.5432 8.21003C17.8618 8.08625 18.1121 7.85933 18.2258 7.57051C18.3624 7.28169 18.3624 6.97225 18.2258 6.6628C17.9528 6.06454 17.2019 5.77572 16.542 6.02328L12.8785 7.40547C12.0821 8.35444 10.8306 8.91144 9.51087 8.91144C8.1911 8.91144 6.93961 8.35444 6.1432 7.40547L2.47973 6.02328C2.16116 5.8995 1.81985 5.8995 1.47853 6.02328C1.13721 6.14706 0.909667 6.39462 0.77314 6.68343C0.636614 6.97225 0.636614 7.28169 0.77314 7.59114C0.909667 7.87996 1.13721 8.10688 1.45578 8.21003L5.30128 9.65411C5.46057 9.716 5.55158 9.88104 5.50608 10.0254C5.32404 10.5206 5.23302 11.0363 5.23302 11.5521C5.23302 11.7583 5.25578 11.9853 5.30128 12.2535C5.32404 12.3566 5.27853 12.4391 5.21027 12.5216L2.66176 14.8528Z" fill="#222222"/>
<path d="M9.48696 8.91205C7.14325 8.91205 5.23187 7.17915 5.23187 5.05429C5.23187 4.86862 5.25462 4.66232 5.27738 4.47666C4.43546 4.06406 3.91211 3.2595 3.91211 2.39305C3.91211 1.07275 5.09534 0 6.55163 0C7.50732 0 8.39474 0.474484 8.84983 1.23779C9.28217 1.1759 9.7145 1.1759 10.1241 1.23779C10.5792 0.474484 11.4666 0 12.4223 0C13.8786 0 15.0618 1.07275 15.0618 2.39305C15.0618 3.2595 14.5385 4.06406 13.6965 4.47666C13.7193 4.66232 13.7421 4.86862 13.7421 5.05429C13.7648 7.17915 11.8534 8.91205 9.48696 8.91205ZM6.55163 0.618893C5.48217 0.618893 4.59474 1.40282 4.59474 2.39305C4.59474 3.09446 5.07259 3.73398 5.77798 4.0228C5.93726 4.08469 6.00552 4.2291 5.98277 4.37351C5.93726 4.60043 5.89175 4.82736 5.89175 5.05429C5.89175 6.84908 7.50732 8.29316 9.4642 8.29316C11.4438 8.29316 13.0367 6.82845 13.0367 5.05429C13.0367 4.82736 13.0139 4.60043 12.9456 4.37351C12.9001 4.2291 12.9912 4.08469 13.1504 4.0228C13.8786 3.75461 14.3337 3.11509 14.3337 2.39305C14.3337 1.42345 13.469 0.618893 12.3768 0.618893C11.6031 0.618893 10.8977 1.05212 10.5792 1.69164C10.5109 1.83605 10.3516 1.89794 10.1923 1.87731C9.69175 1.77416 9.1684 1.77416 8.6678 1.87731C8.50852 1.91857 8.34924 1.83605 8.28097 1.69164C8.03067 1.05212 7.32528 0.618893 6.55163 0.618893Z" fill="#222222"/>
<path d="M12.9922 3.75621C12.8785 3.75621 12.7419 3.69432 12.6964 3.59117C12.3551 2.97228 11.7862 2.45653 11.1036 2.14709C10.9443 2.06457 10.8761 1.89953 10.9443 1.73449C11.2174 1.19812 11.7862 0.888672 12.4234 0.888672C13.3335 0.888672 14.0844 1.56945 14.0844 2.37401C14.0844 2.95165 13.7204 3.46739 13.1515 3.71495C13.106 3.75621 13.0377 3.75621 12.9922 3.75621ZM11.7407 1.77575C12.2868 2.0852 12.7647 2.51842 13.106 3.01354C13.288 2.8485 13.4018 2.62157 13.4018 2.39464C13.4018 1.92016 12.9695 1.52819 12.4234 1.52819C12.1731 1.50756 11.9228 1.61071 11.7407 1.77575Z" fill="#222222"/>
<path d="M5.98352 3.75511C5.93801 3.75511 5.89251 3.75511 5.847 3.73448C5.27813 3.48692 4.91406 2.95055 4.91406 2.39355C4.91406 1.56836 5.66496 0.908203 6.55238 0.908203C7.18951 0.908203 7.75837 1.23828 8.03143 1.75402C8.09969 1.89843 8.03143 2.0841 7.87214 2.16662C7.18951 2.47606 6.62065 2.99181 6.27933 3.6107C6.23382 3.69322 6.12005 3.75511 5.98352 3.75511ZM6.55238 1.50647C6.02903 1.50647 5.5967 1.89843 5.5967 2.37292C5.5967 2.62047 5.71047 2.82677 5.89251 2.99181C6.23382 2.49669 6.71167 2.06347 7.25777 1.75402C7.05298 1.60961 6.82544 1.50647 6.55238 1.50647Z" fill="#222222"/>
<path d="M9.4871 15.2647C7.50746 15.2647 5.86914 13.6143 5.86914 11.572C5.86914 10.066 6.75657 8.72509 8.12183 8.14746C8.1901 8.1062 8.28112 8.1062 8.37213 8.12683C9.10028 8.33313 9.87393 8.33313 10.6021 8.12683C10.6931 8.1062 10.7841 8.1062 10.8524 8.14746C12.2176 8.72509 13.1051 10.066 13.1051 11.572C13.1051 13.6143 11.4895 15.2647 9.4871 15.2647ZM8.30387 8.76635C7.23441 9.26147 6.57453 10.3548 6.57453 11.572C6.57453 13.2636 7.89429 14.6458 9.50986 14.6458C11.1254 14.6458 12.4452 13.2636 12.4452 11.572C12.4452 10.3548 11.7626 9.26147 10.7158 8.76635C9.91944 8.97265 9.07752 8.97265 8.30387 8.76635Z" fill="#222222"/>
<path d="M9.48913 6.51915C9.17057 6.51915 8.852 6.35411 8.64721 6.08593L8.57895 5.98278C8.32865 5.67333 8.26039 5.34326 8.41967 5.0957C8.53344 4.8894 8.78374 4.76562 9.1023 4.76562H9.89871C10.2173 4.76562 10.4676 4.8894 10.5813 5.0957C10.7179 5.34326 10.6496 5.6527 10.4221 5.98278L10.3538 6.0653C10.1263 6.35411 9.83045 6.51915 9.48913 6.51915ZM9.01129 5.40515C9.01129 5.44641 9.03404 5.52893 9.12506 5.63207L9.19332 5.71459C9.3526 5.92089 9.6029 5.92089 9.76218 5.71459L9.83045 5.63207C9.92147 5.5083 9.94422 5.44641 9.94422 5.40515C9.92147 5.40515 9.89871 5.40515 9.87596 5.40515H9.1023C9.05679 5.40515 9.03404 5.40515 9.01129 5.40515Z" fill="#222222"/>
<path d="M9.4878 7.69518C9.30577 7.69518 9.14648 7.55077 9.14648 7.38574V6.20984C9.14648 6.0448 9.30577 5.90039 9.4878 5.90039C9.66984 5.90039 9.82912 6.0448 9.82912 6.20984V7.38574C9.82912 7.55077 9.69259 7.69518 9.4878 7.69518Z" fill="#222222"/>
<path d="M9.48717 7.73687C8.69076 7.73687 7.96261 7.44805 7.39375 6.95294C7.32549 6.89105 7.30273 6.80853 7.30273 6.72601C7.30273 6.64349 7.32549 6.56097 7.39375 6.49908C7.53028 6.37531 7.73507 6.37531 7.8716 6.49908C8.30393 6.89105 8.87279 7.09735 9.48717 7.09735C10.1015 7.09735 10.6704 6.89105 11.1027 6.49908C11.2393 6.37531 11.4441 6.37531 11.5806 6.49908C11.6488 6.56097 11.6716 6.64349 11.6716 6.72601C11.6716 6.80853 11.6488 6.89105 11.5806 6.95294C11.0345 7.44805 10.2836 7.73687 9.48717 7.73687Z" fill="#222222"/>
<path d="M8.85101 4.16772H7.87257C7.69053 4.16772 7.53125 4.02331 7.53125 3.85827C7.53125 3.69324 7.69053 3.54883 7.87257 3.54883H8.85101C9.03305 3.54883 9.19233 3.69324 9.19233 3.85827C9.19233 4.02331 9.03305 4.16772 8.85101 4.16772Z" fill="#222222"/>
<path d="M11.1264 4.16772H10.148C9.96592 4.16772 9.80664 4.02331 9.80664 3.85827C9.80664 3.69324 9.96592 3.54883 10.148 3.54883H11.1264C11.3084 3.54883 11.4677 3.69324 11.4677 3.85827C11.4677 4.02331 11.3084 4.16772 11.1264 4.16772Z" fill="#222222"/>
</svg>

<svg width="19" height="19" fill="none" xmlns="http://www.w3.org/2000/svg"><path d="M4.255 18.113c-1.092 0-1.98-.805-1.98-1.795 0-.99.888-1.795 1.98-1.795s1.98.805 1.98 1.795c0 .99-.888 1.795-1.98 1.795zm0-2.97c-.705 0-1.297.515-1.297 1.175 0 .64.569 1.176 1.297 1.176.705 0 1.297-.516 1.297-1.176 0-.66-.569-1.176-1.297-1.176zm10.467 2.97c-1.092 0-1.98-.805-1.98-1.795 0-.99.888-1.795 1.98-1.795s1.98.805 1.98 1.795c0 .99-.888 1.795-1.98 1.795zm0-2.97c-.706 0-1.297.515-1.297 1.175 0 .64.569 1.176 1.297 1.176.705 0 1.297-.516 1.297-1.176 0-.66-.569-1.176-1.297-1.176z" fill="#222"/><path d="M4.255 19c-.751 0-1.525-.269-2.094-.785-1.16-1.052-1.16-2.743 0-3.795l2.435-2.208c-.023-.227-.046-.433-.046-.619 0-.495.069-.97.205-1.444L1.228 8.788h-.023a1.962 1.962 0 01-1.069-.97 1.586 1.586 0 010-1.361 1.962 1.962 0 011.07-.97 2.094 2.094 0 011.501 0L6.44 6.89a.23.23 0 01.137.103c.682.846 1.729 1.32 2.867 1.32 1.137 0 2.184-.474 2.867-1.32.045-.041.09-.083.136-.103l3.732-1.403c1.001-.371 2.162.062 2.571.97.205.433.205.928 0 1.361a1.962 1.962 0 01-1.07.97h-.022l-3.55 1.34c.137.475.205.97.205 1.445 0 .206-.023.412-.045.619l2.457 2.228c1.16 1.052 1.16 2.743 0 3.795-1.16 1.053-3.026 1.053-4.164 0l-.023-.02-1.911-1.733a4.866 4.866 0 01-2.435 0l-1.934 1.753c-.478.516-1.229.784-2.002.784zm-1.593-4.147c-.888.804-.888 2.125 0 2.93.887.804 2.32.804 3.208 0l2.07-1.878a.41.41 0 01.342-.083 4.009 4.009 0 002.412 0c.114-.04.25 0 .341.083l2.071 1.877c.887.805 2.321.805 3.208 0 .888-.804.888-2.104 0-2.909l-2.548-2.351a.287.287 0 01-.091-.268 4.01 4.01 0 00.068-.702c0-.516-.09-1.031-.273-1.527-.045-.144.023-.309.205-.37L17.52 8.21h.023c.319-.124.57-.35.683-.64a1.056 1.056 0 000-.907c-.273-.598-1.024-.887-1.684-.64l-3.664 1.382c-.796.95-2.047 1.506-3.367 1.506-1.32 0-2.571-.557-3.368-1.506L2.48 6.023a1.396 1.396 0 00-1.001 0 1.243 1.243 0 00-.706.66 1.057 1.057 0 000 .908c.137.289.364.516.683.619L5.3 9.654c.16.062.25.227.205.371a4.42 4.42 0 00-.273 1.527c0 .206.023.433.068.702.023.103-.022.185-.09.268l-2.55 2.33z" fill="#222"/><path d="M9.487 8.912c-2.344 0-4.255-1.733-4.255-3.858 0-.185.023-.392.045-.577-.842-.413-1.365-1.218-1.365-2.084C3.912 1.073 5.095 0 6.552 0c.955 0 1.843.474 2.298 1.238a4.395 4.395 0 011.274 0C10.58.474 11.467 0 12.422 0c1.457 0 2.64 1.073 2.64 2.393 0 .867-.523 1.671-1.365 2.084.022.185.045.392.045.577.023 2.125-1.889 3.858-4.255 3.858zM6.552.62c-1.07 0-1.957.784-1.957 1.774 0 .701.478 1.341 1.183 1.63.16.062.228.206.205.35a3.494 3.494 0 00-.091.681c0 1.795 1.615 3.24 3.572 3.24 1.98 0 3.573-1.466 3.573-3.24 0-.227-.023-.454-.091-.68-.046-.145.045-.29.204-.351.729-.268 1.184-.908 1.184-1.63 0-.97-.865-1.774-1.957-1.774-.774 0-1.48.433-1.798 1.073-.068.144-.227.206-.387.185a3.794 3.794 0 00-1.524 0 .336.336 0 01-.387-.185C8.031 1.053 7.325.62 6.551.62z" fill="#222"/><path d="M12.992 3.756c-.114 0-.25-.062-.296-.165a3.446 3.446 0 00-1.592-1.444c-.16-.082-.228-.247-.16-.413.273-.536.842-.845 1.48-.845.91 0 1.66.68 1.66 1.485 0 .578-.364 1.093-.932 1.34-.046.042-.114.042-.16.042zm-1.251-1.98a4.16 4.16 0 011.365 1.238.857.857 0 00.296-.62c0-.474-.432-.866-.979-.866a.926.926 0 00-.682.248zM5.984 3.755c-.046 0-.091 0-.137-.02-.569-.248-.933-.784-.933-1.341 0-.826.751-1.486 1.638-1.486.638 0 1.206.33 1.48.846.068.144 0 .33-.16.413A3.446 3.446 0 006.28 3.61c-.045.082-.159.144-.295.144zm.568-2.249c-.523 0-.955.392-.955.867a.82.82 0 00.296.619 4.15 4.15 0 011.365-1.238c-.205-.144-.433-.248-.706-.248zm2.935 13.759c-1.98 0-3.618-1.65-3.618-3.693 0-1.506.888-2.847 2.253-3.425.068-.04.16-.04.25-.02a4.095 4.095 0 002.23 0c.091-.02.182-.02.25.02a3.702 3.702 0 012.253 3.425c0 2.042-1.616 3.693-3.618 3.693zM8.304 8.766c-1.07.495-1.73 1.589-1.73 2.806 0 1.692 1.32 3.074 2.936 3.074 1.615 0 2.935-1.382 2.935-3.074 0-1.217-.682-2.31-1.73-2.806a4.777 4.777 0 01-2.411 0zM9.49 6.52c-.32 0-.638-.166-.843-.434l-.068-.103c-.25-.31-.319-.64-.16-.887.114-.207.365-.33.683-.33H9.9c.318 0 .569.123.682.33.137.247.069.557-.159.887l-.068.082c-.228.29-.524.454-.865.454zm-.48-1.116c0 .041.023.124.114.227l.068.083c.16.206.41.206.57 0l.067-.083c.091-.124.114-.186.114-.227h-.932z" fill="#222"/><path d="M9.488 7.695c-.182 0-.342-.144-.342-.31V6.21c0-.165.16-.31.342-.31.182 0 .341.145.341.31v1.176c0 .165-.136.31-.341.31z" fill="#222"/><path d="M9.487 7.737a3.166 3.166 0 01-2.093-.784.294.294 0 01-.091-.227c0-.083.022-.165.09-.227a.354.354 0 01.479 0c.432.392 1 .598 1.615.598.614 0 1.183-.206 1.616-.598a.354.354 0 01.478 0 .294.294 0 01.09.227.294.294 0 01-.09.227 3.123 3.123 0 01-2.094.784zm-.636-3.569h-.978c-.182 0-.342-.145-.342-.31s.16-.31.342-.31h.978c.182 0 .341.145.341.31s-.159.31-.341.31zm2.275 0h-.978c-.182 0-.341-.145-.341-.31s.159-.31.341-.31h.978c.182 0 .342.145.342.31s-.16.31-.342.31z" fill="#222"/></svg>
